X:49
T:Diesel Though The Day
M:C|
C:© Paul Gitlitz 2009
R:Reel
N: This is my life on COFFEE!!
K:A
"A"A3A- ABcA|BAcA BAEF|"F#m"A3A- ABcA|dBcA BAEF|!
"D"A3A- ABcA|BAcA BAF2|"E"B3B- BABc|1dBcA BAEF:|2dBcA BAF2|!
|:"A"e3e- efga|cecA {(BA}B)AFA|"F#m"e3e- efga|fecA {(BA}B)ABc|!
"D"e3e- efga|eaec {(BA}B)AFA|"E"B3B- BABc|1dBcA BAF2:|2dAcA BAEF||
